X: 41884
T: Voice Of The Borders, The
R: waltz
M: 3/4
K: Dmajor
|:A3 B d2|e a3 g2|f3 e d2|e f3 d2|B3 A G2|B e3 d2|B3 A G2|A6|
A3 B d2|e a3 g2|f3 e d2|e f3 d2|B3 A G2|A e3 c2|(d6-|d6):|
|:a3 f d2|f a3 fa|g3 d B2|B e3 d2|B3 A G2|B e3 d2|B3 A G2|A6|
a3 f d2|f a3 fa|g3 B A2|G4 A2|B3 A G2|A e3 c2|(d6-|d6):|

